X:1
T:The Hayden Fancy
R:polka
M:2/4
L:1/8
K:D
|:A>B df|A>B df|eB BA/B/|dB Bd|
|A>B df|A>B df|eB cd|1 ed dB:|2 ed d2|]
|:af fe/f/|af fe|dB BA/B/|1 dB BA|
|af fe/f/|af fe|dB cd| ed d2:|2 dB Bd|
|A>B df|A>B df|eB cd| ed dB|]